.local/share/icons/Gruvbox-Plus-Dark/mimetypes/scalable/application-vnd.ms-publisher.svg

<svg width="256" height="256" viewBox="0 0 256 256" fill="none" xmlns="http://www.w3.org/2000/svg">
<g opacity="0.4" filter="url(#filter0_f)">
<path d="M55.0839 15.5636H155.608L216.009 75.7129L216.011 224.609C216.011 233.52 208.749 240.737 199.838 240.737H55.0838C46.1734 240.737 39 233.564 39 224.654V31.6474C39 22.737 46.1734 15.5636 55.0838 15.5636H55.0839Z" fill="#282828"/>
</g>
<path d="M55.0839 15H155.608L216.009 75.1493L216.011 224.045C216.011 232.956 208.749 240.174 199.838 240.174H55.0838C46.1734 240.174 39 233 39 224.09V31.0838C39 22.1734 46.1734 15 55.0838 15H55.0839Z" fill="#ebdbb2"/>
<path fill-rule="evenodd" clip-rule="evenodd" d="M155.608 20.3191H55.0839C49.1112 20.3191 44.3191 25.1111 44.3191 31.0838V224.09C44.3191 230.063 49.1111 234.855 55.0838 234.855H199.838C205.83 234.855 210.692 229.999 210.692 224.046V75.1493L155.608 20.3191ZM155.608 15H55.0839C46.1735 15 39 22.1734 39 31.0838V224.09C39 233 46.1734 240.174 55.0838 240.174H199.838C208.749 240.174 216.011 232.956 216.011 224.045L216.009 75.1493L155.608 15Z" fill="url(#paint0_linear)"/>
<path d="M130.075 68C109.393 71.7802 88.6911 75.4507 68.0092 79.176C67.9969 111.73 67.9969 144.283 68.0092 176.837C88.581 180.575 109.177 184.135 129.737 188H138.081V174.044C147.533 174.014 156.969 174.086 166.417 174.056C169.156 173.972 172.902 174.128 174.048 170.863C175.006 164.555 174.276 158.096 174.48 151.734C178.686 151.607 183.08 152.291 187.164 150.911C187.988 148.481 187.947 145.857 188 143.317C187.918 124.26 187.947 105.186 187.988 86.1247C187.894 84.0152 187.988 81.8255 187.275 79.83C184.768 76.8894 180.508 78.0327 177.178 77.7247C168.741 78.0875 160.23 77.1678 151.845 78.1888C145.78 80.2223 147.953 88.1329 147.574 93.1155H138.081V68H130.075ZM165.268 81.8973C171.48 81.8635 177.708 82.0913 183.916 81.9521V146.135H174.48C174.455 129.365 174.521 112.607 174.451 95.8367C168.117 90.6474 159.614 88.4831 154.095 82.3698C157.81 82.0521 161.536 81.8945 165.264 81.8973H165.268ZM138.081 97.2965H169.087V169.858H138.081C138.068 167.065 138.068 164.277 138.081 161.484H161C160.988 159.627 160.988 157.758 161 155.902H138.081C138.068 153.573 138.068 151.261 138.081 148.928H161C160.988 147.072 160.988 145.203 161 143.346H138.081C138.068 141.018 138.068 138.701 138.081 136.368H161C160.988 134.512 160.988 132.643 161 130.787H138.081C138.067 128.462 138.067 126.137 138.081 123.813H161V104.279H138.081C138.067 101.953 138.067 99.6267 138.081 97.3007V97.2965ZM101.205 104.199C105.118 104.114 108.868 104.713 111.916 107.57C117.7 114.894 116.151 128.264 107.535 132.63C104.478 134.25 100.972 134.039 97.6543 133.896C97.6368 139.372 97.6327 144.848 97.6421 150.325C94.9152 150.042 92.1924 149.764 89.4859 149.456C89.6204 134.609 89.4981 119.779 89.5511 104.933C93.2236 105.051 97.2956 104.283 101.205 104.199H101.205ZM100.809 112.291C99.7372 112.261 98.6407 112.367 97.6421 112.426C97.6135 117.1 97.5728 121.775 97.8459 126.433C100.536 126.112 103.988 126.39 105.554 123.53C106.809 120.729 106.915 117.168 105.431 114.434C104.319 112.767 102.599 112.341 100.809 112.291V112.291Z" fill="url(#paint1_linear)"/>
<path opacity="0.25" d="M155.608 17V61.2306C155.608 70.141 162.867 77.1605 171.777 77.1605L216.009 77.1493V75.1493L155.608 17Z" fill="#282828"/>
<path d="M155.608 15V59.2306C155.608 68.141 162.867 75.1605 171.777 75.1605L216.009 75.1493L155.608 15Z" fill="url(#paint2_linear)"/>
<defs>
<filter id="filter0_f" x="23.8778" y="0.441412" width="207.255" height="255.418" filterUnits="userSpaceOnUse" color-interpolation-filters="sRGB">
<feFlood flood-opacity="0" result="BackgroundImageFix"/>
<feBlend mode="normal" in="SourceGraphic" in2="BackgroundImageFix" result="shape"/>
<feGaussianBlur stdDeviation="7.5611" result="effect1_foregroundBlur"/>
</filter>
<linearGradient id="paint0_linear" x1="127.506" y1="240.174" x2="127.506" y2="15" gradientUnits="userSpaceOnUse">
<stop stop-color="#427b58"/>
<stop offset="1" stop-color="#689d6a"/>
</linearGradient>
<linearGradient id="paint1_linear" x1="128" y1="188" x2="128" y2="68" gradientUnits="userSpaceOnUse">
<stop stop-color="#427b58"/>
<stop offset="1" stop-color="#689d6a"/>
</linearGradient>
<linearGradient id="paint2_linear" x1="185.808" y1="75.1605" x2="185.808" y2="15" gradientUnits="userSpaceOnUse">
<stop stop-color="#427b58"/>
<stop offset="1" stop-color="#689d6a"/>
</linearGradient>
</defs>
</svg>

<svg width="256" height="256" fill="none" version="1.1" viewBox="0 0 256 256" xmlns="http://www.w3.org/2000/svg">
  <path d="m55.08 15h100.5l60.4 60.15 2e-3 148.9c0 8.911-7.262 16.13-16.17 16.13h-144.8c-8.91 0-16.08-7.174-16.08-16.08v-193c0-8.91 7.173-16.08 16.08-16.08h1e-4z" fill="#ebdbb2"/>
  <path d="m155.6 20.32h-100.5c-5.973 0-10.76 4.792-10.76 10.76v193c0 5.973 4.792 10.76 10.76 10.76h144.8c5.992 0 10.85-4.856 10.85-10.81v-148.9l-55.08-54.83zm0-5.319h-100.5c-8.91 0-16.08 7.173-16.08 16.08v193c0 8.91 7.173 16.08 16.08 16.08h144.8c8.911 0 16.17-7.218 16.17-16.13l-2e-3 -148.9-60.4-60.15z" clip-rule="evenodd" fill="url(#paint0_linear)" fill-rule="evenodd"/>
  <path d="m130.1 68c-20.68 3.78-41.38 7.451-62.07 11.18-0.0123 32.55-0.0123 65.11 0 97.66 20.57 3.738 41.17 7.298 61.73 11.16h8.344v-13.96c9.452-0.03 18.89 0.042 28.34 0.012 2.739-0.084 6.485 0.072 7.631-3.193 0.958-6.308 0.228-12.77 0.432-19.13 4.206-0.127 8.6 0.557 12.68-0.823 0.824-2.43 0.783-5.054 0.836-7.594-0.082-19.06-0.053-38.13-0.012-57.19-0.094-2.11 0-4.299-0.713-6.295-2.507-2.941-6.767-1.797-10.1-2.105-8.437 0.3628-16.95-0.5569-25.33 0.4641-6.065 2.034-3.892 9.944-4.271 14.93h-9.493v-25.12h-8.006zm35.19 13.9c6.212-0.0338 12.44 0.194 18.65 0.0548v64.18h-9.436c-0.025-16.77 0.041-33.53-0.029-50.3-6.334-5.189-14.84-7.354-20.36-13.47 3.715-0.3177 7.441-0.4753 11.17-0.4725h4e-3zm-27.19 15.4h31.01v72.56h-31.01c-0.013-2.793-0.013-5.581 0-8.374h22.92c-0.012-1.857-0.012-3.726 0-5.582h-22.92c-0.013-2.329-0.013-4.641 0-6.974h22.92c-0.012-1.856-0.012-3.725 0-5.582h-22.92c-0.013-2.328-0.013-4.645 0-6.978h22.92c-0.012-1.856-0.012-3.725 0-5.581h-22.92c-0.014-2.325-0.014-4.65 0-6.974h22.92v-19.53h-22.92c-0.014-2.326-0.014-4.652 0-6.978v-0.0042zm-36.88 6.902c3.913-0.085 7.663 0.514 10.71 3.371 5.784 7.324 4.235 20.69-4.381 25.06-3.057 1.62-6.563 1.409-9.881 1.266-0.0175 5.476-0.0216 10.95-0.0122 16.43-2.727-0.283-5.45-0.561-8.156-0.869 0.1345-14.85 0.0122-29.68 0.0652-44.52 3.672 0.118 7.744-0.65 11.65-0.734zm-0.396 8.092c-1.072-0.03-2.168 0.076-3.167 0.135-0.0286 4.674-0.0693 9.349 0.2038 14.01 2.69-0.321 6.142-0.043 7.708-2.903 1.255-2.801 1.361-6.362-0.123-9.096-1.112-1.667-2.832-2.093-4.622-2.143z" fill="url(#paint1_linear)"/>
  <path d="m155.6 17v44.23c0 8.91 7.259 15.93 16.17 15.93l44.23-0.0112v-2l-60.4-58.15z" fill="#282828" opacity=".25"/>
  <path d="m155.6 15v44.23c0 8.91 7.259 15.93 16.17 15.93l44.23-0.0112-60.4-60.15z" fill="url(#paint2_linear)"/>
  <defs>
    <linearGradient id="paint0_linear" x1="127.5" x2="127.5" y1="240.2" y2="15" gradientUnits="userSpaceOnUse">
      <stop stop-color="#427b58" offset="0"/>
      <stop stop-color="#689d6a" offset="1"/>
    </linearGradient>
    <linearGradient id="paint1_linear" x1="128" x2="128" y1="188" y2="68" gradientUnits="userSpaceOnUse">
      <stop stop-color="#427b58" offset="0"/>
      <stop stop-color="#689d6a" offset="1"/>
    </linearGradient>
    <linearGradient id="paint2_linear" x1="185.8" x2="185.8" y1="75.16" y2="15" gradientUnits="userSpaceOnUse">
      <stop stop-color="#427b58" offset="0"/>
      <stop stop-color="#689d6a" offset="1"/>
    </linearGradient>
  </defs>
</svg>
